X: 1
T: Red Fish
R: jig
M: 6/8
L: 1/8
K: Amaj
|: D | E2E GAB | AGE GED | E2E GAB | AGE D3 |
| E2E GAB | AGE GED | EDB' DEF | EDB' D2 :|
|: GAB edB | dBG AGF | GAB edB | dBG A3 |
| GAB edB | dBG ABd | edB def | edB A3 :|